packages/dnb-ui-lib/assets/icons/ainvoice.svg

<svg width="16" height="16" viewBox="0 0 16 16" fill="none" xmlns="http://www.w3.org/2000/svg">
<path fill-rule="evenodd" clip-rule="evenodd" d="M4.84692 0.899902C3.88043 0.899902 3.09692 1.6834 3.09692 2.6499V3.99988C3.09692 4.41409 3.43271 4.74988 3.84692 4.74988C4.26114 4.74988 4.59692 4.41409 4.59692 3.99988V2.6499C4.59692 2.51183 4.70885 2.3999 4.84692 2.3999H10.0223C10.0958 2.3999 10.1656 2.43228 10.2131 2.48842L12.8522 5.6073C12.8904 5.65244 12.9114 5.70966 12.9114 5.76879V13.3509C12.9114 13.489 12.7994 13.6009 12.6614 13.6009H4.84693C4.70885 13.6009 4.59692 13.489 4.59692 13.3509V12.9999C4.59692 12.5857 4.26114 12.2499 3.84692 12.2499C3.43271 12.2499 3.09692 12.5857 3.09692 12.9999V13.3509C3.09692 14.3174 3.88043 15.1009 4.84693 15.1009H12.6614C13.6279 15.1009 14.4114 14.3174 14.4114 13.3509V5.76879C14.4114 5.35488 14.2646 4.95436 13.9973 4.63839L11.3582 1.5195C11.0257 1.12654 10.5371 0.899902 10.0223 0.899902H4.84692ZM5.86548 7.98841V9.74591C5.86548 9.99291 5.96998 10.0974 6.20748 10.0974L6.18848 10.9999C6.06498 11.0569 5.81798 11.0949 5.58998 11.0949C5.08648 11.0949 4.74448 10.8479 4.62098 10.4204C4.35498 10.8384 3.85148 11.0949 3.21498 11.0949C2.23648 11.0949 1.59998 10.5344 1.59998 9.68891C1.59998 8.83391 2.14148 8.36841 3.36698 8.17841L4.47848 8.00741V7.93141C4.47848 7.48491 4.16498 7.20941 3.66148 7.20941C3.26248 7.20941 2.92998 7.43741 2.79698 7.79841L1.75198 7.26641C2.05598 6.53491 2.73048 6.15491 3.73748 6.15491C5.10548 6.15491 5.86548 6.81041 5.86548 7.98841ZM2.91098 9.63191C2.91098 9.90741 3.16748 10.1259 3.48098 10.1259C4.10798 10.1259 4.47848 9.65091 4.47848 8.87191L3.70898 8.99541C3.15798 9.08091 2.91098 9.28041 2.91098 9.63191Z" fill="black"/>
</svg>

<svg width="16" height="16" viewBox="0 0 16 16" fill="none" xmlns="http://www.w3.org/2000/svg"><path fill-rule="evenodd" clip-rule="evenodd" d="M4.847.9a1.75 1.75 0 00-1.75 1.75V4a.75.75 0 001.5 0V2.65a.25.25 0 01.25-.25h5.175a.25.25 0 01.191.088l2.64 3.12a.25.25 0 01.058.16v7.583a.25.25 0 01-.25.25H4.847a.25.25 0 01-.25-.25V13a.75.75 0 00-1.5 0v.35c0 .967.783 1.75 1.75 1.75h7.814a1.75 1.75 0 001.75-1.75V5.77a1.75 1.75 0 00-.414-1.13l-2.639-3.12A1.75 1.75 0 0010.022.9H4.847zm1.018 7.088v1.758c0 .247.105.351.342.351L6.188 11c-.123.057-.37.095-.598.095-.504 0-.846-.247-.969-.675-.266.418-.77.675-1.406.675-.979 0-1.615-.56-1.615-1.406 0-.855.541-1.32 1.767-1.51l1.111-.172v-.076c0-.446-.313-.722-.817-.722a.898.898 0 00-.864.59l-1.045-.533c.304-.731.978-1.111 1.985-1.111 1.368 0 2.128.655 2.128 1.833zM2.911 9.632c0 .275.256.494.57.494.627 0 .997-.475.997-1.254l-.769.123c-.551.086-.798.285-.798.637z" fill="#000"/></svg>
